!!!!SEGMENT: pl-wtm--r-1634_stefani-jozef--radosci-pelne-zablyslo-swieto.krn
!!!cenid: 18xx:2370
!!!COM: Stefani, Józef
!!!COM-rismid: pe30024097
!!!CDT: 1800/04/16-1876/03/19
!!!CNT: Polish
!!!OTL: Radości pełne zabłysło święto
!!!PDT: 1854
!!!AGN:
!!!SMS-siglum: PL-Wtm
!!!SMS-shelfmark: R 1634
!!!SMS-shelfwork: W
!!!SMS-variant:
!!!SMS-altvar:
!!!NIFC-rismid: 1001115811
!!!OMD: Allegro Maestoso.
!!!system-decoration: [(s1)][(s2)]{(s3,s4)}
**kern	**kern	**dynam	**kern	**text	**kern	**text	**text	**dynam
*part4	*part3	*part3	*part2	*part2	*part1	*part1	*part1	*part1
*staff4	*staff3	*	*staff2	*staff2	*staff1	*staff1	*staff1	*
*Iempty	*Iforte	*	*Ivox	*	*Ivox	*	*	*
*	*I"[Fortepian]	*	*I"[Głos 2]	*	*I"[Głos 1]	*	*	*
*	*I'pf	*	*I'V 2	*	*I'V 1	*	*	*
*clefG2	*clefG2	*	*clefG2	*	*clefG2	*	*	*
*k[b-]	*k[b-]	*	*k[b-]	*	*k[b-]	*	*	*
*F:	*F:	*	*F:	*	*F:	*	*	*
*M4/4	*M4/4	*	*M4/4	*	*M4/4	*	*	*
*met(c)	*met(c)	*	*met(c)	*	*met(c)	*	*	*
*>[A,B,B1,B,B2,C,C1,C,C2,D]	*>[A,B,B1,B,B2,C,C1,C,C2,D]	*	*>[A,B,B1,B,B2,C,C1,C,C2,D]	*	*>[A,B,B1,B,B2,C,C1,C,C2,D]	*	*	*
*>A	*>A	*	*>A	*	*>A	*	*	*
*2\right	*2\right	*	*2\right	*	*2\right	*	*	*
!!LO:TX:t=P:problem:all\right:global
!	!	!LO:DY:b:rj	!	!	!	!	!	!
8r	8cccL 8cc|>\	f	4ryy	.	4ryy	.	.	.
4r	8.ddd 8.dd|>\	.	.	.	.	.	.	.
.	.	.	8ryy	.	8ryy	.	.	.
.	16cccJk 16cc|>\	.	.	.	.	.	.	.
=1	=1	=1	=1	=1	=1	=1	=1	=1
*clefG2	*	*	*	*	*	*	*	*
8.r	[>2ccc [>2cc\	.	1ryy	.	1ryy	.	.	.
16b-KL 16g|</	.	.	.	.	.	.	.	.
8.a 8.f|</	.	.	.	.	.	.	.	.
16gJk 16c|</	.	.	.	.	.	.	.	.
8a 8f|</	8ccc] 8cc\]	.	.	.	.	.	.	.
!	!	!LO:DY:b:rj	!	!	!	!	!	!
8r	8cc\L	p	.	.	.	.	.	.
.	(<8qee/	.	.	.	.	.	.	.
4r	8.dd\)	.	.	.	.	.	.	.
.	16cc\Jk	.	.	.	.	.	.	.
=2	=2	=2	=2	=2	=2	=2	=2	=2
8r	(>2cc\	.	1ryy	.	1ryy	.	.	.
16b-LL 16g|</	.	.	.	.	.	.	.	.
16b-J 16g|</	.	.	.	.	.	.	.	.
8.a 8.f|</	.	.	.	.	.	.	.	.
16gJk 16c|</	.	.	.	.	.	.	.	.
8a 8f|</	8ccc 8cc\)	.	.	.	.	.	.	.
!	!	!LO:DY:b:rj	!	!	!	!	!	!
8r	8aa 8a\	f	.	.	.	.	.	.
8.r	8.bb-L 8.b-\	.	.	.	.	.	.	.
*clefF4	*	*	*	*	*	*	*	*
16A-X 16F 16D-X\	16bbnJk 16bn\	.	.	.	.	.	.	.
!LO:LB:g=original	!LO:LB:g=original	!	!	!	!	!	!	!
=3	=3	=3	=3	=3	=3	=3	=3	=3
[>2An [>2F [>2C\	(>16ddd\LL	.	1ryy	.	1ryy	.	.	.
.	16ccc\	.	.	.	.	.	.	.
.	16aa\	.	.	.	.	.	.	.
.	16ff\JJ	.	.	.	.	.	.	.
.	16dd\LL	.	.	.	.	.	.	.
.	16cc\	.	.	.	.	.	.	.
.	16a\	.	.	.	.	.	.	.
.	16f\JJ	.	.	.	.	.	.	.
8A] 8F] 8C\]	8c/)	.	.	.	.	.	.	.
8r	8r	.	.	.	.	.	.	.
!	!LO:TX:b:Bi:t=V&colon;S&colon;	!	!	!	!	!	!	!
4B- 4G 4C\	4ccc 4gg 4ee 4cc^<\	.	.	.	.	.	.	.
!!LO:PB:g=original
=4	=4	=4	=4	=4	=4	=4	=4	=4
1r	2r	.	2r	.	2r	.	.	.
.	8.r	.	8.r	.	8.r	.	.	.
!	!	!LO:DY:b:rj	!	!	!	!	!	!
.	16cccKL 16cc|>\	f	16cc\	.	16cc\	Ra-	.	.
.	8.ddd 8.dd|>\	.	8.dd\	.	8.dd^>\	-do-	.	.
.	16cccJk 16cc|>\	.	16cc\	.	16cc\	-ści	.	.
=5	=5	=5	=5	=5	=5	=5	=5	=5
4F 4FF/	4fff 4ff|>\	.	4a/	.	4ff\	peł-	.	.
4c 4A 4F\	8.aaL 8.a|>\	.	8.a/	.	8.a/	-ne	.	.
.	16dddJk 16dd|>\	.	16dd\	.	16dd\	za-	.	.
4C 4CC/	(>8cccL 8cc\	.	(>8cc\L	.	(>8cc\L	-bły-	.	.
.	8bb-J 8b-\)	.	8b-\J)	.	8b-\J)	.	.	.
4c 4B- 4E\	(>8ggL 8g\	.	(<8g/L	.	(>8g/L	-sło	.	.
.	8aaJ 8a\)	.	8a/J)	.	8a/J)	.	.	.
=6	=6	=6	=6	=6	=6	=6	=6	=6
4F 4FF/	4.ff 4.f\	.	(<4.f/	.	(<4.f/	świę-	.	.
4c 4A 4F\	.	.	.	.	.	.	.	.
.	16g/LL	.	16g/LL	.	16g/LL	.	.	.
.	16a/JJ	.	16a/JJ)	.	16a/JJ)	.	.	.
4c 4G 4C\	4g 4e/	.	4g/	.	4g/	-to	.	.
4r	4r	.	8r	.	8r	.	.	.
.	.	.	8c/	.	8c/	Twój	.	.
!!LO:LB:g=original
=7	=7	=7	=7	=7	=7	=7	=7	=7
*	*^	*	*	*	*	*	*	*
!	!	!	!LO:DY:b:rj	!	!	!	!	!	!
8.FL 8.FF/	8.fL 8.c 8.A/	2.rbbbyy	p	8.A/	.	8.f/	dzień	.	<
16FJk 16FF/	16fJk 16c 16A/	.	.	16A/	.	16f/	I-	.	.
!	!	!	!LO:HP:b	!	!	!	!	!	!
8.EL 8.EE/	8.gL 8.e 8.c/	.	<	8.c/	.	8.g/	-mie-	.	.
16EJk 16EE/	16gJk 16e 16c/	.	.	16c/	.	16g/	-nia	.	[
4F 4FF/	4a 4f 4c/	.	[[	4f/	.	4a/	ah	.	.
!	!	!	!LO:HP:b	!	!	!	!	!	!
4G 4D 4BB-\	8.cc/L	4g 4d\	>	8.d/	.	8.cc\	Oj-	.	>
.	16b-/Jk	.	]	16d/	.	16b-\	-cze	.	]]
*	*v	*v	*	*	*	*	*	*	*
=8	=8	=8	=8	=8	=8	=8	=8	=8
!	!	!LO:DY:b:rj	!	!	!	!	!	!
8.GL 8.E 8.C\	8.gL 8.e 8.c/	f	[>2e/	.	[<2g/	nasz	.	.
16C\K	16c/K	.	.	.	.	.	.	.
8.E\	8.e/	.	.	.	.	.	.	.
16G\Jk	16g/Jk	.	.	.	.	.	.	.
4C/	4c/	.	8e/]	.	8g/]	.	.	.
.	.	.	8cc\	.	8cc\	Z du-	.	.
4r	4r	.	8.dd\	.	8.dd\	-szą	.	.
.	.	.	16cc\	.	16cc\	wdzię-	.	.
=9	=9	=9	=9	=9	=9	=9	=9	=9
!	!	!LO:DY:b:rj	!	!	!	!	!	!
4F 4FF/	4r	p	4.a/	.	4.ff\	-czno-	.	.
4r	4a 4f 4c/	.	.	.	.	.	.	.
.	.	.	8a/	.	8a/	-ści	.	.
4C 4CC/	4r	.	8cc/L	.	(>8cc\L	czu-	.	.
.	.	.	8b-/J	.	8b-\J)	.	.	.
4r	4g 4e 4c/	.	8.g/	.	8.g/	-ciem	.	.
.	.	.	16a/	.	16a/	prze-	.	.
!!LO:LB:g=original
=10	=10	=10	=10	=10	=10	=10	=10	=10
4F 4FF/	4r	.	4.f/	.	4.f/	-ję-	.	.
4r	4a 4f 4c/	.	.	.	.	.	.	.
.	.	.	16g/LL	.	16g/LL	.	.	.
.	.	.	16a/JJ	.	16a/JJ	.	.	.
8C 8CC/	8g 8e 8c/	.	8g/	.	8g/	-ta	.	.
!	!	!LO:HP:b	!	!	!	!	!	!
8CL 8CC/	8gL 8e/	<	8e/	.	8g/	ze-	.	.
8.F 8.FF/	8.a 8.f/	.	8.f/	.	8.a/	-bra-	.	.
16EJk 16EE/	16bnJk 16g#X 16d/	.	16g#X/	.	16bn/	-ne	.	.
=11	=11	=11	=11	=11	=11	=11	=11	=11
4A 4AA\	4cc 4a 4e/	[	4a/	.	4cc\	gro-	.	.
8.AL 8.AA\	8.ccL 8.a 8.e/	.	8.a/	.	8.cc\	-no	.	.
16AJk 16AA\	16ccJk 16a 16e/	.	16a/	.	16cc\	przed	.	.
!	!LO:N:vis=8	!	!	!	!	!	!	!
!	!	!LO:DY:b:rj	!	!	!	!	!	!
4G 4GG\	4dd 4bn 4g\	f	8bn/	.	4dd\	so-	.	.
.	.	.	8r	.	.	.	.	.
4G 4D 4GG\	4gg 4dd 4b\	.	4b/	.	4gg\	-bą	.	.
=12	=12	=12	=12	=12	=12	=12	=12	=12
8.GL 8.E 8.C\	8.cc\L	.	2cc\	.	2cc\	masz	.	.
16cK 16C\	16cccK 16cc\	.	.	.	.	.	.	.
8.g 8.G\	8.ggg 8.gg\	.	.	.	.	.	.	.
16eJk 16E\	16eeeJk 16ee\	.	.	.	.	.	.	.
4c 4C\	4ccc 4cc\	.	4r	.	4r	.	.	.
=!|:	=!|:	=!|:	=!|:	=!|:	=!|:	=!|:	=!|:	=!|:
*>B	*>B	*	*>B	*	*>B	*	*	*
4r	8.ffL 8.a 8.f\	.	8.f/	.	8.a/	Two-	Już	.
.	16ggJk 16b- 16g\	.	16g/	.	16b-/	-je	w nas	.
!!LO:PB:g=original
=13	=13	=13	=13	=13	=13	=13	=13	=13
!	!	!LO:DY:b:rj	!	!	!	!	!	!
8C|>\L	4ee 4g 4e\	mf	4e/	.	4g/	tro-	trwo-	.
(>8c\	.	.	.	.	.	.	.	.
8B- 8G\	2ee 2g 2e\	.	2e/	.	2g/	-skli-	-gi	<
8c\J)	.	.	.	.	.	.	.	.
*rep	*	*	*	*	*	*	*	*
8C|>\L	.	.	.	.	.	.	.	.
(>8c\	.	.	.	.	.	.	.	.
8B- 8G\	8.ffL 8.a 8.f\	.	8.f/	.	8.a/	-we	nie-	.
8c\J)	.	.	.	.	.	.	.	.
.	16ggJk 16b- 16g\	.	16g/	.	16b-/	sta-	-za-	[[
*Xrep	*	*	*	*	*	*	*	*
=14	=14	=14	=14	=14	=14	=14	=14	=14
*^	*	*	*	*	*	*	*	*
*	*	*^	*	*	*	*	*	*	*
!LO:N:vis=2	!	!	!	!	!	!	!	!	!	!
(>8F\L	2F/	(>4aa [>4cc/	2a\	.	2a/	.	(>[>4cc\	-ra-	-nie-	>
8c\	.	.	.	.	.	.	.	.	.	.
8A\	.	16cc/LL]	.	.	.	.	16cc\LL]	.	.	.
.	.	16ff/	.	.	.	.	16ff\	.	.	.
8c\J)	.	16ee/	.	.	.	.	16ee\	.	.	]]
.	.	16ff/JJ	.	.	.	.	16ff\JJ)	.	.	.
*rep	*rep	*	*	*	*	*	*	*	*	*
!LO:N:vis=2	!	!	!	!	!	!	!	!	!	!
(>8F\L	2F/	4cc/)	4a\	.	4a/	.	4cc\	-nie	-ci	.
8c\	.	.	.	.	.	.	.	.	.	.
8A\	.	8.ffL 8.a 8.f\	4ryy	.	8.f/	.	8.a/	Zle-	zmien-	.
8c\J)	.	.	.	.	.	.	.	.	.	.
.	.	16ggJk 16b- 16g\	.	.	16g/	.	16b-/	-wa	-nych	.
*Xrep	*Xrep	*	*	*	*	*	*	*	*	*
*v	*v	*	*	*	*	*	*	*	*	*
*	*v	*v	*	*	*	*	*	*	*
=15	=15	=15	=15	=15	=15	=15	=15	=15
8C|>\L	4ee 4g 4e\	.	4e/	.	4g/	na	lo-	.
(>8c\	.	.	.	.	.	.	.	.
8B- 8G\	2ee 2g 2e\	.	2e/	.	2g/	nas	-sów	.
8c\J)	.	.	.	.	.	.	.	.
*rep	*	*	*	*	*	*	*	*
8C|>\L	.	.	.	.	.	.	.	.
(>8c\	.	.	.	.	.	.	.	.
8B- 8G\	8.bb-L 8.dd 8.b-\	.	8.b-\	.	8.dd\	ty-	próż-	>
8c\J)	.	.	.	.	.	.	.	.
.	16aaJk 16cc 16a\	.	16a\	.	16cc\	-siąc	-ny	]
*Xrep	*	*	*	*	*	*	*	*
=16	=16	=16	=16	=16	=16	=16	=16	=16
*^	*	*	*	*	*	*	*	*
!LO:N:vis=2	!	!	!	!	!	!	!	!	!
(>8F\L	2F/	2ff 2a 2f\	.	2f/	.	2a/	łas	gniew	.
8c\	.	.	.	.	.	.	.	.	.
8A\	.	.	.	.	.	.	.	.	.
8c\J)	.	.	.	.	.	.	.	.	.
8F\	2ryy	2r	.	8.r	.	8.r	.	.	.
8r	.	.	.	.	.	.	.	.	.
.	.	.	.	16cc\	.	16cc\	Two-	Za	.
4r	.	.	.	8.dd\	.	8.dd\	-ja	to	.
.	.	.	.	16cc\	.	16cc\	o-	cóz	.
!!LO:LB:g=original
*v	*v	*	*	*	*	*	*	*	*
=17	=17	=17	=17	=17	=17	=17	=17	=17
!	!	!LO:DY:b:rj	!	!	!	!	!	!
4F 4FF/	4r	p	4.a/	.	4.ff\	-pie-	Oj-	.
4r	4a 4f 4c/	.	.	.	.	.	.	.
.	.	.	8a/	.	8a/	-ka	-cu	.
!	!	!	!LO:SIC:v:s=8.cc\	!	!	!	!	!
4C 4CC/	4r	.	8.dd\	.	8.cc\	Two-	w hoł-	.
!	!	!	!LO:SIC:v:s=16b\	!	!	!	!	!
.	.	.	16cc\	.	16b-\	-je	-dzie	.
4r	4g 4e 4c/	.	8.g/	.	8.g/	przy-	zło-	.
.	.	.	16a/	.	16a/	-wią-	-żą	.
=18	=18	=18	=18	=18	=18	=18	=18	=18
*	*	*	*^	*	*	*	*	*
*	*	*	*	*	*	*^	*	*	*
4D 4DD/	4r	.	4f/	2ryy	.	4f/	2ryy	-za-	dzie-	.
4r	4f 4d 4A/	.	4f/	.	.	4f/	.	-nie	-ci	.
4BB- 4BBB-/	8r	.	(>4dd/	4dd\	.	(>4ff/	4ff\	Zsy-	Tyl-	.
!	!	!LO:HP:b	!	!	!	!	!	!	!	!
.	8ffL 8dd\	>	.	.	.	.	.	.	.	.
4r	8.ee 8.cc\	]]	8.cc/)	8.cc\	.	8.ee/)	8.ee\	-ła	.	.
.	16ddJk 16b-\	.	16b-/	16b-\	.	16dd/	16dd\	nam	-ko	.
*	*	*	*v	*v	*	*	*	*	*	*
=19	=19	=19	=19	=19	=19	=19	=19	=19	=19
*	*^	*	*	*	*	*	*	*	*
8.CL 8.CC/	4cc 4a/	2rcyy	.	4a/	.	4cc\	4ryy	Zsy-	ser-	.
16CK 16CC/	.	.	.	.	.	.	.	.	.	.
8.F 8.FF/	8.aL 8.f/	.	.	8.f/	.	8.a/	4a\	-ła	-ca	.
16AJk 16AA/	16aJk 16f/	.	.	16f/	.	16a/	.	po-	wdzię-	.
4c 4C\	4g/	4f\	.	4f/	.	4g/	2ryy	-wo-	.	.
4c 4G 4C\	4cc/	4e\	.	4e/	.	4cc/	.	-dzeń	-czny	.
*	*v	*v	*	*	*	*	*	*	*	*
=20	=20	=20	=20	=20	=20	=20	=20	=20	=20
*	*	*	*^	*	*	*	*	*	*
4c 4A 4F\	4a 4f/	.	4f/	4ryy	.	4a/	4ryy	blask	śpiew	.
8.C#XL 8.CC#X/	8.aL 8.e/	.	4r	4ryy	.	4r	4ryy	.	.	.
16C#Jk 16CC#/	16aJk 16e/	.	.	.	.	.	.	.	.	.
8D 8DD/	8a 8f/	.	8r	8ryy	.	8r	8ryy	.	.	.
8BB-L 8BBB-/	8ffL 8dd\	.	8dd/L	8dd\	.	8ff/L	8ff\	Zsy-	tyl-	.
8.BB- 8.BBB-/	8.ee 8.cc\	.	8.cc/J	8.cc\	.	8.ee/J	8.ee\	-ła	.	.
16BB-Jk 16BBB-/	16ddJk 16b-\	.	16b-/	16b-\	.	16dd/	16dd\	nam	-ko	.
!!LO:LB:g=original
*	*	*	*v	*v	*	*	*	*	*	*
=21	=21	=21	=21	=21	=21	=21	=21	=21	=21
*	*^	*	*	*	*	*	*	*	*
!	!	!	!	!	!	!LO:TX:a:t=P:w źródle skreślone słowo "tylko":problem	!	!	!	!
8.CL 8.CC/	4cc 4a/	2rgyy	.	4a/	.	4cc\	4ryy	zsy-	ser-	.
16CK 16CC/	.	.	.	.	.	.	.	.	.	.
8.F 8.FF/	8.aL 8.f/	.	.	8.f/	.	8.a/	4a\	-ła	-ca	.
16AJk 16AA/	16aJk 16f/	.	.	16f/	.	16a/	.	po-	.	.
4c 4C\	4g/	4f\	.	4f/	.	4g/	2ryy	-wo-	wdzię-	.
4c 4G 4C\	4cc/	4e\	.	4e/	.	4cc/	.	-dzeń	-czny	.
*	*	*	*	*	*	*v	*v	*	*	*
*	*v	*v	*	*	*	*	*	*	*
=22	=22	=22	=22	=22	=22	=22	=22	=22
!!LO:TX:a:Bi:t=1a
*>B1	*>B1	*	*>B1	*	*>B1	*	*	*
!	!	!LO:DY:b	!	!	!	!	!	!
8.c 8.A 8.F\	8.f/	f	4f/	.	4f/	blask.	.	.
16FKL 16FF/	16ffKL 16f|>\	.	.	.	.	.	.	.
8.C 8.CC/	8.aa 8.a|>\	.	4r	.	4r	.	.	.
16AAJk 16AAA/	16cccJk 16cc|>\	.	.	.	.	.	.	.
4FF 4FFF/	4fff 4ff|>\	.	4r	.	4r	.	.	.
=23:|!	=23:|!	=23:|!	=23:|!	=23:|!	=23:|!	=23:|!	=23:|!	=23:|!
!!LO:TX:a:Bi:t=2
*>B2	*>B2	*	*>B2	*	*>B2	*	*	*
!	!	!LO:DY:b	!	!	!	!	!	!
8.c 8.A 8.F\	8.f/	f	4f/	.	4f/	.	Śpiew	.
16FKL 16FF/	16ffKL 16f|>\	.	.	.	.	.	.	.
8.C 8.CC/	8.aa 8.a|>\	.	4r	.	4r	.	.	.
16AAJk 16AAA/	16cccJk 16cc|>\	.	.	.	.	.	.	.
4FF 4FFF/	4fff 4ff|>\	.	8r	.	2r	.	.	.
.	.	.	8cc\	la	.	.	.	.
!	!LO:TX:b:Bi:t=V&colon;S&colon;	!	!	!	!	!	!	!
4r	4r	.	8cc\	la	.	.	.	.
.	.	.	8cc\	la	.	.	.	.
!!LO:PB:g=original
=24!|:	=24!|:	=24!|:	=24!|:	=24!|:	=24!|:	=24!|:	=24!|:	=24!|:
*>C	*>C	*	*>C	*	*>C	*	*	*
*k[b-]	*k[b-]	*	*k[b-]	*	*k[b-]	*	*	*
!	!	!	!	!	!LO:TX:a:Bi:t=poco allo.:problem:dopisane ołówkiem	!	!	!
!	!	!LO:DY:b:rj	!	!	!	!	!	!
4C 4CC/	8r	p	(<16b-/LL	la	2r	.	.	.
.	.	.	16cc/	.	.	.	.	.
.	8eL 8c 8B-< 8G</	.	16b-/	.	.	.	.	.
.	.	.	16a/JJ	.	.	.	.	.
4rGG	8e 8c 8B-< 8G</	.	16g/LL	.	.	.	.	.
.	.	.	16a/	.	.	.	.	.
.	8eJ 8c 8B-< 8G</	.	16g/	.	.	.	.	.
.	.	.	16f/JJ)	.	.	.	.	.
4C 4CC/	8r	.	8e/	.	8r	.	.	.
*	*tremolo	*	*	*	*	*	*	*
.	8eL 8c 8B- 8G</	.	4g^>/	.	8cc\	la	.	.
*	*	*	*	*	*	*ij	*	*
4rBB	8e 8c 8B- 8G</	.	.	.	8cc\	la	.	.
*	*	*	*	*	*	*Xij	*	*
*	*	*	*	*	*	*ij	*	*
.	8eJ 8c 8B- 8G</	.	8b-/	.	8cc\	la	.	.
*	*	*	*	*	*	*Xij	*	*
*	*Xtremolo	*	*	*	*	*	*	*
=25	=25	=25	=25	=25	=25	=25	=25	=25
4C 4CC/	8r	.	2r	.	(>16cc\LL	la	.	.
.	.	.	.	.	16dd\	.	.	.
.	8fL 8c 8A</	.	.	.	16cc\	.	.	.
.	.	.	.	.	16b-\JJ	.	.	.
*	*	*	*	*	*	*ij	*	*
4rGG	8f 8c 8A</	.	.	.	16a/LL	la	.	.
.	.	.	.	.	16b-/	.	.	.
.	8fJ 8c 8A</	.	.	.	16a/	.	.	.
.	.	.	.	.	16g/JJ)	.	.	.
4C 4CC/	8r	.	8r	.	8f/	la	.	.
*	*tremolo	*	*	*	*	*	*	*
*	*	*	*	*	*	*Xij	*	*
*	*	*	*	*	*	*ij	*	*
.	8fL 8c 8A</	.	8cc\	la	4a^</	la	.	.
*	*	*	*	*	*	*Xij	*	*
*	*	*	*	*ij	*	*	*	*
4rGG	8f 8c 8A</	.	8cc\	la	.	.	.	.
*	*	*	*	*Xij	*	*	*	*
*	*	*	*	*ij	*	*	*	*
.	8fJ 8c 8A</	.	8cc\	la	8cc/	.	.	.
*	*	*	*	*Xij	*	*	*	*
*	*Xtremolo	*	*	*	*	*	*	*
!!LO:LB:g=original
=26	=26	=26	=26	=26	=26	=26	=26	=26
4C 4CC/	8r	.	(<16b-/LL	la	2r	.	.	.
.	.	.	16cc/	.	.	.	.	.
*	*tremolo	*	*	*	*	*	*	*
.	8eL 8c 8B-< 8G</	.	16b-/	.	.	.	.	.
.	.	.	16a/JJ	.	.	.	.	.
4r	8e 8c 8B-< 8G</	.	16g/LL	.	.	.	.	.
.	.	.	16a/	.	.	.	.	.
.	8eJ 8c 8B-< 8G</	.	16g/	.	.	.	.	.
.	.	.	16f/JJ	.	.	.	.	.
*	*Xtremolo	*	*	*	*	*	*	*
*	*rep	*	*	*	*	*	*	*
4C 4CC/	8r	.	8e/)	.	8r	.	.	.
*	*tremolo	*	*	*	*	*	*	*
.	8eL 8c 8B-< 8G</	.	4g/	.	8cc\	la	.	.
*	*	*	*	*	*	*ij	*	*
4r	8e 8c 8B-< 8G</	.	.	.	8cc\	la	.	.
*	*	*	*	*	*	*Xij	*	*
*	*	*	*	*	*	*ij	*	*
.	8eJ 8c 8B-< 8G</	.	8b-/	.	8cc\	la	.	.
*	*	*	*	*	*	*Xij	*	*
*	*Xtremolo	*	*	*	*	*	*	*
*	*Xrep	*	*	*	*	*	*	*
=27	=27	=27	=27	=27	=27	=27	=27	=27
*	*	*	*	*	*	*ij	*	*
4F 4FF\	8r	.	2r	.	(>16cc\LL	la	.	.
.	.	.	.	.	16dd\	.	.	.
*	*tremolo	*	*	*	*	*	*	*
.	8fL 8c 8A</	.	.	.	16cc\	.	.	.
.	.	.	.	.	16b-\JJ	.	.	.
*	*	*	*	*	*	*Xij	*	*
*	*	*	*	*	*	*ij	*	*
4r	8f 8c 8A</	.	.	.	16a/LL	la	.	.
.	.	.	.	.	16b-/	.	.	.
.	8fJ 8c 8A</	.	.	.	16a/	.	.	.
.	.	.	.	.	16g/JJ	.	.	.
*	*	*	*	*	*	*Xij	*	*
*	*Xtremolo	*	*	*	*	*	*	*
*	*	*	*	*	*	*ij	*	*
8F 8FF\	8f 8c 8A</	.	4r	.	8f/)	la	.	.
*	*	*	*	*	*	*Xij	*	*
8r	8r	.	.	.	8r	.	.	.
4r	4r	.	4f/	.	(<4a/	la	.	.
.	.	.	.	.	.	.	.	.
=28	=28	=28	=28	=28	=28	=28	=28	=28
*	*	*	*	*	*	*ij	*	*
2F 2FF/	(<16aLL 16f/	.	(<16f/LL	.	16a/LL	la	.	.
.	16b- 16g/	.	16g/	.	16b-/	.	.	.
.	16a 16f/	.	16f/	.	16a/	.	.	.
.	16b-JJ 16g/	.	16g/JJ	.	16b-/JJ	.	.	.
*	*	*	*	*	*	*Xij	*	*
*	*	*	*	*	*	*ij	*	*
.	4cc 4a/)	.	4a/)	.	4cc/)	la	.	.
*	*	*	*	*	*	*Xij	*	*
!!LO:LB:g=original
*	*	*	*	*	*	*ij	*	*
2F 2FF/	16ccLL 16a 16f/	.	16a/LL	.	(>16cc\LL	la	.	.
.	16dd 16b- 16g/	.	16b-/	.	16dd\	.	.	.
.	16cc 16a/	.	16a/	.	16cc\	.	.	.
*	*	*	*	*	*	*Xij	*	*
*	*	*	*	*	*	*ij	*	*
.	16ddJJ 16b-/	.	16b-/JJ	.	16dd\JJ	la	.	.
*	*	*	*	*	*	*Xij	*	*
*	*	*	*	*	*	*ij	*	*
.	4ee-X 4cc\	.	4cc\	.	4ee-X\)	la	.	.
*	*	*	*	*	*	*Xij	*	*
=29	=29	=29	=29	=29	=29	=29	=29	=29
8F 8BB-\	8dd 8b-\	.	8b-\	.	8dd\	la	.	.
8r	8r	.	8r	.	8r	.	.	.
!	!	!LO:DY:b:rj	!	!	!	!	!	!
4F 4BB-\	4ff 4dd 4b- 4f\	ff	(>4dd\	.	(>[>4ff\	ah	.	.
2r	2r	.	16dd\LL	.	16ff\LL]	.	.	.
.	.	.	16cc#X\	.	16ee\	.	.	.
.	.	.	16dd\	.	16ff\	.	.	.
.	.	.	16cc#\JJ)	.	16ee\JJ)	.	.	.
.	.	.	(>16ee\LL	.	(>16gg\LL	tyl-	.	.
.	.	.	16dd\JJ)	.	16ff\JJ)	.	.	.
.	.	.	(>16ccn\LL	.	(>16ee\LL	-ko	.	.
.	.	.	16b-\JJ)	.	16dd\JJ)	.	.	.
=30	=30	=30	=30	=30	=30	=30	=30	=30
*	*^	*	*	*	*	*	*	*
!	!	!	!LO:DY:b:rj	!	!	!	!	!	!
8.CL 8.CC/	4cc 4a/	2ryy	p	4a/	.	4cc\	ser-	.	.
16AAK 16AAA/	.	.	.	.	.	.	.	.	.
8.F 8.FF/	8.aL 8.f/	.	.	4f/	.	4a/	-ca	.	.
16AJk 16AA/	16aJk 16f/	.	.	.	.	.	.	.	.
4c 4C\	4g/	4f\	.	4f/	.	4g/	wdzię-	.	.
4c 4G 4C\	4cc/	4e\	.	4e/	.	4cc\	-czny	.	.
*	*v	*v	*	*	*	*	*	*	*
=31	=31	=31	=31	=31	=31	=31	=31	=31
!!LO:TX:a:Bi:t=1a
*>C1	*>C1	*	*>C1	*	*>C1	*	*	*
!	!	!LO:DY:b	!	!	!	!	!	!
8.c 8.A 8.F\	8.f/	f	4f/	.	4f/	śpiew,	.	.
16FKL 16FF/	16ffKL 16f\	.	.	.	.	.	.	.
8.C 8.CC/	8.aa 8.a\	.	4r	.	4r	.	.	.
16AAJk 16AAA/	16cccJk 16cc\	.	.	.	.	.	.	.
4FF 4FFF/	4fff 4ff\	.	8r	.	2r	.	.	.
.	.	.	8cc\	la	.	.	.	.
*	*	*	*	*ij	*	*	*	*
4r	4r	.	8cc\	la	.	.	.	.
*	*	*	*	*Xij	*	*	*	*
*	*	*	*	*ij	*	*	*	*
.	.	.	8cc\	la	.	.	.	.
*	*	*	*	*Xij	*	*	*	*
!!LO:PB:g=original
=32:|!	=32:|!	=32:|!	=32:|!	=32:|!	=32:|!	=32:|!	=32:|!	=32:|!
!!LO:TX:a:Bi:t=2
*>C2	*>C2	*	*>C2	*	*>C2	*	*	*
!!LO:TX:a:t=P:w źródle niewidoczne oznaczenie drugiej volty:problem
!	!	!	!	!	!LO:TX:a:Bi:t=1o Tempo:problem:dopisane ołówkiem	!	!	!
4c 4A 4F\	4f/	.	4f/	.	4f/	śpiew	.	.
!	!	!LO:DY:b:rj	!	!	!	!	!	!
8.B-L 8.BB-\	8.ddL 8.b- 8.f\	f	8.b-\	.	8.dd\	tyl-	.	.
16B-Jk 16BB-\	16ddJk 16b- 16f\	.	16b-\	.	16dd\	-ko	.	.
8.cL 8.C\	8.ccL 8.a 8.f\	.	8.a/	.	8.cc\	ser-	.	.
16cJk 16C\	16ccJk 16a 16f\	.	16a/	.	16cc\	-ca	.	.
8.cL 8.C\	8.eeL 8.b- 8.g\	.	8.b-/	.	8.ee\	wdzię-	.	.
16cJk 16C\	16eeJk 16b- 16g\	.	16b-/	.	16ee\	-czny	.	.
=33	=33	=33	=33	=33	=33	=33	=33	=33
*	*^	*	*	*	*	*	*	*
*>D	*>D	*>D	*	*>D	*	*>D	*	*	*
!	!	!	!	!	!	!LO:TX:a:t=P:problem:dimunuendolike accent:problem	!	!	!
8.d 8.D\	8gg/L	8.a\	.	8.a/	.	(>8gg^<\L	śpiew	.	.
.	16ff/Jk	.	.	.	.	16ff\Jk)	.	.	.
16r	16r	16r	.	16r	.	16r	.	.	.
4B- 4BB-\	(>8eeL 8cc\	4ryy	.	8cc\	.	8ee\	tyl-	.	.
.	8ddJ 8b-\)	.	.	8b-\	.	8dd\	-ko	.	.
4c 4C\	16ccKL 16a\	2ryy	.	8.a/	.	(>16cc\KL	ser-	.	.
!	!	!	!	!	!	!LO:TX:a:Bi:t=rall.	!	!	!
.	8ff 8a\	.	.	.	.	8ff\J)	.	.	.
.	16aJk 16f\	.	.	16f/	.	16a/	-ca	.	.
!	!LO:TX:b:Bi:t=colla voce	!	!	!	!	!	!	!	!
8cL 8C\	(<16ddLL 16b-/	.	.	(<16b-/LL	.	(>16dd\LL	wdzię-	.	.
.	16ccJJ 16a/)	.	.	16a/JJ)	.	16cc\JJ)	.	.	.
8cJ 8C\	(<16b-LL 16g/	.	.	(<16g/LL	.	(>16b-/LL	-czny	.	.
.	16gJJ 16e/)	.	.	16e/JJ)	.	16g/JJ)	.	.	.
!!LO:LB:g=original
*	*v	*v	*	*	*	*	*	*	*
=34	=34	=34	=34	=34	=34	=34	=34	=34
4c 4A 4F\	4f/	.	4f/	.	4f/	śpiew.	.	.
4r	4r	.	4r	.	4r	.	.	.
4F 4FF/	4aa 4ff 4cc\	.	2r	.	2r	.	.	.
8.r	8.r	.	.	.	.	.	.	.
16F 16FF/	16f 16c 16A/	.	.	.	.	.	.	.
=35	=35	=35	=35	=35	=35	=35	=35	=35
!	!LO:TX:a:Bi:t=dnia 9. Listopada 1854 roku \np. J. Stefani	!	!	!	!	!	!	!
1F 1FF;>	1f 1c 1A;>	.	1r;>	.	1r;>	.	.	.
==	==	==	==	==	==	==	==	==
*-	*-	*-	*-	*-	*-	*-	*-	*-
!!title: @{OTL};
!!!RDF**kern: > = above
!!!RDF**kern: < = below
!!!RDF**kern: | = vertical stroke
!!!RDF**kern: N = linked
!!!RDF**kern: i = editorial accidental
!!!EED: Wojciech Jakubiak-Danek
!!!EST: 2021-06-09
!!!URL-scan: http://repozytorium.nifc.pl/skany/pl-wtm-nut--r1634
!!!ONB-nifc:
!!!ENC: Anastazja Marusiak
!!!END: 2021-06-07
